!!!COM: Anonymous
!!!OTL: La plus grant chiere de jamais
!!!AGN: Song; Chanson; Rondeau
!!!SCT: Ano3110
!!!SCA: Ano3110
!!!SMS: Dijon Chansonnier
!!!folio: 158v-159r
!!!SMS2: F229
!!!SMS3: Pix
!!!voices: 3
**kern	**kern	**kern
*staff3	*staff2	*staff1
*Ivox	*Ivox	*Ivox
*I"Contra	*I"Tenor	*I"Discantus
*I'C	*I'T	*I'D
*clefF4	*clefGv2	*clefG2
*k[]	*k[]	*k[]
*M3/1	*M3/1	*M3/1
*met(O)	*met(O)	*met(O)
=1-	=1-	=1-
!!LO:TX:X=-40:Z=8:t=Sig. congr. are editorial
1G	1G	0.r
2E	2G	.
2F	2.A	.
1D	.	.
.	4G	.
.	2F	.
=2	=2	=2
1C	1E	1g
2r	2E	2g
2c	2.F	2.a
2A	.	.
.	4E	4g
2B	2D	2f
=3	=3	=3
1.c	1C	1.e
.	2c	.
1B	1d	1f
2c	[2c	2e
=4	=4	=4
1G	2c]	1d
.	2B	.
4C	1c	1c
4D	.	.
2F	.	.
2E	2e	2cc
[2D	[2f	[2dd
=5	=5	=5
4D]	2f]	2dd]
4F	.	.
2C	2e	1cc
1G	1d	.
.	.	2b
2C	[1c	1cc
[2F	.	.
=6	=6	=6
2F]	2c]	2a
2G	2B	2g
2.F	2.A	2.cc
4E	4G	4dd
1D	1d	2b
.	.	[2a
=7	=7	=7
2F	2c	2a]
2G	2B	1g
1D	1A	.
.	.	2f#i
2r	[1G	[1g
[2G	.	.
=8	=8	=8
4G]	1G]	1g]
4F	.	.
4E	.	.
4D	.	.
1C	1c	1r
2r	2B	1g
2E	2G	.
=9	=9	=9
1F	1A	1cc
1G	2G	2b
.	1G	2g
1D	.	1a
.	2F	.
=10	=10	=10
2r	2G	2g
2G	2B	1g
1D	1A	.
.	.	2f
2r	1G	2g
2G	.	2e
=11	=11	=11
2A	2F	2d
2G	2E	2c
2B	2D	2f
2c	2C	2e
2A	2F	2d
[2G	2E	2c
=12	=12	=12
2G]	2C	2.g
1C	2.G	.
.	.	4f
.	.	2e
.	4E	.
2A	2F	2d
2B	2D	2f
[2c	[2C	[2e
=13	=13	=13
4c]	2C]	4e]
4B	.	4c
1G	2E	1c
.	1D	.
2F	.	2B
[1GN	[1CN	1cN
=14	=14	=14
2G]	1C]	2r
2E	.	2g
2F	2r	2a
2E	2c	2g
[1C	2.c	[1e
.	4B	.
=15	=15	=15
1C]	2c	1e]
.	2A	.
2E	2G	2r
2F	2A	2cc
1A	2F	2.cc
.	4E	.
.	4D	4b
=16	=16	=16
2r	1C	2cc
2c	.	2a
2B	2r	2g
2A	2c	2a
2D	2d	2f
2G	2B	4e
.	.	4d
=17	=17	=17
1C	2c	1c
.	4B	.
.	4A	.
1E	2.G	2r
.	.	2g
.	4E	.
2r	2F	2a
2F	2D	2f
=18	=18	=18
2G	1C	2e
2c	.	1a
2d	2F	.
2.e	2E	1g
.	2G	.
4d	.	.
[2c	[2A	[2f
=19	=19	=19
2c]	2A]	4f]
.	.	4e
1B	2G	1e
.	1F	.
2A	.	2d
1B	[1E	1e
=20	=20	=20
2.G	1E]	2r
.	.	2g
4E	.	.
2F	2r	2a
2G	2G	2b
2F	2A	2cc
2E	2B	2g
=21	=21	=21
1C	2c	2a
.	2G	1g
2r	1A	.
2D	.	2f
2E	2G	2g
2C	[2c	2e
=22	=22	=22
1G	2c]	1d
.	2B	.
2C	2.c	2c
2.D	.	2.g
.	4B	.
.	2.G	.
4E	.	4f
2C	.	4e
.	4F	4d
=23	=23	=23
2r	2.G	2e
2B	.	1d
.	4F	.
4c	2G	.
4B	.	.
4A	2E	1c
4G	.	.
2.F	1D	.
.	.	2B
4E	.	.
=24	=24	=24
1.G	0C	1c
.	.	2r
1c	.	2c
.	2r	2e
2A	2D	2f
=25	=25	=25
2G	2E	2g
2.c	2F	2a
.	2G	2g
4B	.	.
2A	1A	1cc
2F	.	.
2G	2G	2b
=26	=26	=26
2F	2.c	2a
1.G	.	2g
.	4B	.
.	2A	2.dd
.	2G	.
.	.	4cc
1D	1d	2b
.	.	[2a
=27	=27	=27
2F	2c	2a]
2G	2B	1g
1D	1A	.
.	.	2f#i
1dl	1Gl	1gl
==	==	==
*-	*-	*-
!!!RDF**kern: l=long note in original notation
!!!RDF**kern: i=editorial accidental
!!!RDF**kern: N=signum congruentiae
!!!ENC: Chris Gage 10-04-2016
!!!END: 2018/09/27
!!!EED: Jesse Rodin
!!!EEV: 2018/11/29
!!!ONB: Translated from MusicXML and edited on 2018/11/29 by Craig Sapp
!!muse2ps: C^@{COM}\n@{SMS}, @{folio}; also @{SMS2}, @{SMS3}^v95,95,150c160
